assets/Ghost/Flat/ghost_flat.svg

<svg width="32" height="32" viewBox="0 0 32 32" fill="none" xmlns="http://www.w3.org/2000/svg">
<path d="M16.0338 1.5C10.7437 1.5 6.25448 5.29167 5.49822 10.4044L5.49699 10.4127L5.25951 12.5H2.74776C1.6604 12.5 1.12056 13.8199 1.8842 14.5836L4.70187 17.4012L3.55665 27.4669C3.34987 28.8534 4.28248 30.2795 5.76578 30.4679C6.93607 30.616 8.1575 30.2514 9.06236 29.3703C10.2132 28.2498 12.0906 28.2498 13.2415 29.3703C14.7805 30.869 17.2767 30.869 18.8158 29.3703C19.9666 28.2498 21.8441 28.2498 22.9949 29.3703C23.8189 30.1727 24.9003 30.5368 25.9626 30.4914L25.9644 30.4913C27.5484 30.4179 28.7234 28.9895 28.5008 27.4482L27.3585 17.3664L30.1413 14.5836C30.905 13.8199 30.3651 12.5 29.2778 12.5H26.8071L26.5706 10.4133L26.5695 10.4054C25.8238 5.29103 21.323 1.5 16.0338 1.5Z" fill="#9B9B9B"/>
<path d="M6.15216 13.5L6.48865 10.5425C7.17333 5.94213 11.2241 2.5 16.0338 2.5C20.8444 2.5 24.9042 5.94297 25.5788 10.5419L25.9139 13.5H29.2778C29.4704 13.5 29.5706 13.7401 29.4342 13.8764L26.3105 17.0001L27.509 27.5773L27.5102 27.5857C27.6514 28.5401 26.9186 29.4456 25.9187 29.4923C25.1128 29.5265 24.3056 29.2508 23.6925 28.6539C22.1535 27.1552 19.6572 27.1552 18.1182 28.6539C16.9673 29.7745 15.0899 29.7745 13.9391 28.6539C12.4 27.1552 9.90378 27.1552 8.3647 28.6539C7.68848 29.3124 6.77441 29.5876 5.89134 29.4758C5.01697 29.3646 4.41038 28.4979 4.54663 27.6082L4.54809 27.5987L5.74996 17.0351L2.59129 13.8764C2.45493 13.7401 2.55509 13.5 2.74773 13.5H6.15216Z" fill="white"/>
<path d="M21 12H11C11 12 11 17 16 17C21 17 21 12 21 12Z" fill="#89029C"/>
<path d="M19.5884 16.0583L19.7654 15.1729C19.8968 14.5163 19.4892 13.8723 18.8396 13.7099C16.9752 13.2438 15.0248 13.2438 13.1604 13.7099C12.5108 13.8723 12.1033 14.5163 12.2346 15.1729L12.4117 16.0583C12.7538 17.7688 14.2556 19 16 19C17.7444 19 19.2463 17.7688 19.5884 16.0583Z" fill="#F70A8D"/>
<path d="M11.7237 7.05277C11.4767 6.92928 11.1764 7.02939 11.0529 7.27638C10.9294 7.52337 11.0295 7.82371 11.2765 7.9472L12.3821 8.49999L11.2765 9.05277C11.0295 9.17627 10.9294 9.4766 11.0529 9.72359C11.1764 9.97058 11.4767 10.0707 11.7237 9.9472L13.7237 8.9472C13.8931 8.86251 14.0001 8.68937 14.0001 8.49999C14.0001 8.3106 13.8931 8.13747 13.7237 8.05277L11.7237 7.05277Z" fill="#321B41"/>
<path d="M21.0001 8.49999C21.0001 9.32841 20.3285 9.99999 19.5001 9.99999C18.6717 9.99999 18.0001 9.32841 18.0001 8.49999C18.0001 7.67156 18.6717 6.99999 19.5001 6.99999C20.3285 6.99999 21.0001 7.67156 21.0001 8.49999Z" fill="#321B41"/>
</svg>

<svg xmlns="http://www.w3.org/2000/svg" width="32" height="32" fill="none"><path fill="#9B9B9B" d="M16.034 1.5c-5.29 0-9.78 3.792-10.536 8.904l-.001.009L5.26 12.5H2.748c-1.088 0-1.627 1.32-.864 2.084L4.702 17.4 3.557 27.467c-.207 1.386.725 2.813 2.209 3a3.993 3.993 0 0 0 3.296-1.097 3.018 3.018 0 0 1 4.18 0c1.538 1.499 4.035 1.499 5.574 0a3.018 3.018 0 0 1 4.179 0 3.987 3.987 0 0 0 2.968 1.121h.001c1.584-.073 2.76-1.502 2.537-3.043l-1.143-10.082 2.783-2.782c.764-.764.224-2.084-.863-2.084h-2.47l-.237-2.087-.002-.008C25.825 5.291 21.324 1.5 16.035 1.5Z"/><path fill="#fff" d="m6.152 13.5.337-2.957c.684-4.6 4.735-8.043 9.545-8.043s8.87 3.443 9.545 8.042l.335 2.958h3.364c.192 0 .293.24.156.376L26.311 17l1.198 10.577.001.009c.141.954-.591 1.86-1.591 1.906a2.987 2.987 0 0 1-2.227-.838c-1.538-1.499-4.035-1.499-5.574 0a3.018 3.018 0 0 1-4.179 0c-1.539-1.499-4.035-1.499-5.574 0a2.993 2.993 0 0 1-2.474.822c-.874-.111-1.48-.978-1.344-1.868l.001-.01L5.75 17.036l-3.159-3.159c-.136-.136-.036-.376.157-.376h3.404Z"/><path fill="#89029C" d="M21 12H11s0 5 5 5 5-5 5-5Z"/><path fill="#F70A8D" d="m19.588 16.058.177-.885a1.254 1.254 0 0 0-.925-1.463 11.708 11.708 0 0 0-5.68 0 1.254 1.254 0 0 0-.925 1.463l.177.885a3.66 3.66 0 0 0 7.176 0Z"/><path fill="#321B41" d="M11.724 7.053a.5.5 0 1 0-.447.894l1.105.553-1.105.553a.5.5 0 1 0 .447.894l2-1a.5.5 0 0 0 0-.894l-2-1ZM21 8.5a1.5 1.5 0 1 1-3 0 1.5 1.5 0 0 1 3 0Z"/></svg>
